icons/breezeDark/actions/22/thermal-path.svg

<svg viewBox="0 0 22 22" xmlns="http://www.w3.org/2000/svg"><path d="m13 3.2597656v1.0351563a7 7 0 0 1 4.701172 4.7050781h1.033203a8 8 0 0 0 -5.734375-5.7402344zm-4 .0058594a8 8 0 0 0 -5.7324219 5.734375h1.0273438a7 7 0 0 1 4.7050781-4.7011719zm-5.734375 9.734375a8 8 0 0 0 5.734375 5.740234v-1.035156a7 7 0 0 1 -4.7011719-4.705078zm14.439453 0a7 7 0 0 1 -4.705078 4.701172v1.033203a8 8 0 0 0 5.732422-5.734375z" fill="#da4453"/><g fill="#c0c0c0"><circle cx="11" cy="11" fill-opacity=".501961" r="5"/><path d="m11 5a6 6 0 0 0 -6 6 6 6 0 0 0 6 6 6 6 0 0 0 6-6 6 6 0 0 0 -6-6zm0 1a5 5 0 0 1 5 5 5 5 0 0 1 -5 5 5 5 0 0 1 -5-5 5 5 0 0 1 5-5z"/></g></svg>

<?xml version="1.0" encoding="UTF-8" standalone="no"?>
<svg
   xmlns:dc="http://purl.org/dc/elements/1.1/"
   xmlns:cc="http://creativecommons.org/ns#"
   xmlns:rdf="http://www.w3.org/1999/02/22-rdf-syntax-ns#"
   xmlns:svg="http://www.w3.org/2000/svg"
   xmlns="http://www.w3.org/2000/svg"
   xmlns:sodipodi="http://sodipodi.sourceforge.net/DTD/sodipodi-0.dtd"
   xmlns:inkscape="http://www.inkscape.org/namespaces/inkscape"
   viewBox="0 0 22 22"
   version="1.1"
   id="svg8"
   sodipodi:docname="thermal.svg"
   inkscape:version="0.92.4 (5da689c313, 2019-01-14)">
  <metadata
     id="metadata14">
    <rdf:RDF>
      <cc:Work
         rdf:about="">
        <dc:format>image/svg+xml</dc:format>
        <dc:type
           rdf:resource="http://purl.org/dc/dcmitype/StillImage" />
        <dc:title></dc:title>
      </cc:Work>
    </rdf:RDF>
  </metadata>
  <defs
     id="defs12" />
  <sodipodi:namedview
     pagecolor="#ffffff"
     bordercolor="#666666"
     borderopacity="1"
     objecttolerance="10"
     gridtolerance="10"
     guidetolerance="10"
     inkscape:pageopacity="0"
     inkscape:pageshadow="2"
     inkscape:window-width="1721"
     inkscape:window-height="1372"
     id="namedview10"
     showgrid="true"
     inkscape:snap-object-midpoints="true"
     inkscape:snap-center="true"
     inkscape:snap-bbox="true"
     inkscape:zoom="42.909091"
     inkscape:cx="11.820684"
     inkscape:cy="10.276643"
     inkscape:window-x="2085"
     inkscape:window-y="441"
     inkscape:window-maximized="0"
     inkscape:current-layer="svg8">
    <inkscape:grid
       type="xygrid"
       id="grid821"
       empspacing="8" />
  </sodipodi:namedview>
  <path
     style="fill:#da4453;fill-opacity:1;stroke:none;stroke-width:9.33210182"
     d="M 13 3.2597656 L 13 4.2949219 A 7 7 0 0 1 17.701172 9 L 18.734375 9 A 8 8 0 0 0 13 3.2597656 z M 9 3.265625 A 8 8 0 0 0 3.2675781 9 L 4.2949219 9 A 7 7 0 0 1 9 4.2988281 L 9 3.265625 z M 3.265625 13 A 8 8 0 0 0 9 18.740234 L 9 17.705078 A 7 7 0 0 1 4.2988281 13 L 3.265625 13 z M 17.705078 13 A 7 7 0 0 1 13 17.701172 L 13 18.734375 A 8 8 0 0 0 18.732422 13 L 17.705078 13 z "
     id="path831" />
  <circle
     style="fill:#c0c0c0;fill-opacity:0.50196078;stroke:none;stroke-width:4.85538626"
     id="path833"
     cx="11"
     cy="11"
     r="5" />
  <path
     style="fill:#c0c0c0;fill-opacity:1;stroke:none;stroke-width:5.6571331"
     d="M 11 5 A 6 6 0 0 0 5 11 A 6 6 0 0 0 11 17 A 6 6 0 0 0 17 11 A 6 6 0 0 0 11 5 z M 11 6 A 5 5 0 0 1 16 11 A 5 5 0 0 1 11 16 A 5 5 0 0 1 6 11 A 5 5 0 0 1 11 6 z "
     id="path835" />
</svg>
